X: 14644
T: Gan Ainm
R: reel
M: 4/4
K: Adorian
ed|:c2Ac BAGB|AGEF G2DG|EAAG ABcd|eaaf gfed|
cBAc BAGB|AGEF GEDG|EAAG ABcd|1 ecdB A2ed:|2 ecdB A2eg||
|:a2ag a2ag|edcB G2AB|cedc A2AB|cdeg a2ab|
c'3b a2ag|edcB G2AB|cedc A2AB|1 cABG A2eg:|2 cABG A2ed||

